static/img/scriptfree_icon.svg

<svg fill="none" height="82" viewBox="0 0 76 82" width="76" xmlns="http://www.w3.org/2000/svg"><rect fill="#abb8ff" height="57.8973" opacity=".3" rx="2" width="45.379" x="11.9534" y="12.0695"/><rect fill="#abb8ff" height="57.8973" opacity=".3" rx="2" width="45.379" x="1" y="23.0233"/><rect fill="#020013" height="57.8973" rx="2" width="45.379" x="22.9072" y="1.11609"/><g stroke-linecap="round"><path d="m68.0906 33.3899v19.8191c0 2.8284 0 4.2426-.8787 5.1213s-2.2929.8787-5.1213.8787h-33.1834c-2.8284 0-4.2426 0-5.1213-.8787s-.8787-2.2929-.8787-5.1213v-46.09291c0-2.82843 0-4.24264.8787-5.12132s2.2929-.87868 5.1213-.87868h16.5917" stroke="#abb8ff"/><path d="m57.1368 59.9913v4.1711c0 2.8285 0 4.2427-.8787 5.1214-.8786.8786-2.2929.8786-5.1213.8786h-33.1834c-2.8284 0-4.2426 0-5.1213-.8786-.8787-.8787-.8787-2.2929-.8787-5.1214v-46.0929c0-2.8284 0-4.2426.8787-5.1213s2.2929-.8787 5.1213-.8787h4.0734" stroke="#abb8ff" stroke-dasharray="2 2"/><path d="m46.1834 59.9915v15.1247c0 2.8285 0 4.2427-.8787 5.1213-.8787.8787-2.2929.8787-5.1213.8787h-33.1834c-2.82843 0-4.24264 0-5.12132-.8787-.87868-.8786-.87868-2.2928-.87868-5.1213v-46.0929c0-2.8284 0-4.2426.87868-5.1213s2.29289-.8787 5.12132-.8787h15.9071" stroke="#abb8ff" stroke-dasharray="2 2"/><path d="m64.863 1.11609v19.36431" stroke="#ea4040"/><path d="m74.5453 10.7984h-19.3643" stroke="#ea4040"/></g><ellipse cx="46.379" cy="23.023" fill="#abb8ff" fill-opacity=".5" rx="10.9535" ry="4.69438" stroke="#abb8ff"/><path d="m35.4254 32.4119v6.2592c0 2.5926 4.9041 4.6944 10.9535 4.6944 6.0495 0 10.9536-2.1018 10.9536-4.6944 0-1.2941 0-6.2592 0-6.2592" stroke="#abb8ff" stroke-linecap="square"/><path d="m35.4254 23.0232v7.824c0 2.5926 4.9041 4.6944 10.9535 4.6944 6.0495 0 10.9536-2.1018 10.9536-4.6944 0-1.2941 0-7.824 0-7.824" stroke="#abb8ff"/></svg>

<svg width="76" height="82" viewBox="0 0 76 82" fill="none" xmlns="http://www.w3.org/2000/svg">
<rect opacity="0.3" x="11.9534" y="12.0695" width="45.379" height="57.8973" rx="2" fill="#ABB8FF"/>
<rect opacity="0.3" x="1" y="23.0233" width="45.379" height="57.8973" rx="2" fill="#ABB8FF"/>
<rect x="22.9072" y="1.11609" width="45.379" height="57.8973" rx="2" fill="#020013"/>
<path d="M68.0906 33.3899V53.209C68.0906 56.0374 68.0906 57.4516 67.2119 58.3303C66.3332 59.209 64.919 59.209 62.0906 59.209H28.9072C26.0788 59.209 24.6646 59.209 23.7859 58.3303C22.9072 57.4516 22.9072 56.0374 22.9072 53.209V7.11609C22.9072 4.28766 22.9072 2.87345 23.7859 1.99477C24.6646 1.11609 26.0788 1.11609 28.9072 1.11609H45.4989" stroke="#ABB8FF" stroke-linecap="round"/>
<path d="M57.1368 59.9913V64.1624C57.1368 66.9909 57.1368 68.4051 56.2581 69.2838C55.3795 70.1624 53.9652 70.1624 51.1368 70.1624H17.9534C15.125 70.1624 13.7108 70.1624 12.8321 69.2838C11.9534 68.4051 11.9534 66.9909 11.9534 64.1624V18.0695C11.9534 15.2411 11.9534 13.8269 12.8321 12.9482C13.7108 12.0695 15.125 12.0695 17.9534 12.0695H22.0268" stroke="#ABB8FF" stroke-linecap="round" stroke-dasharray="2 2"/>
<path d="M46.1834 59.9915V75.1162C46.1834 77.9447 46.1834 79.3589 45.3047 80.2375C44.426 81.1162 43.0118 81.1162 40.1834 81.1162H7C4.17157 81.1162 2.75736 81.1162 1.87868 80.2375C1 79.3589 1 77.9447 1 75.1162V29.0233C1 26.1949 1 24.7807 1.87868 23.902C2.75736 23.0233 4.17157 23.0233 7 23.0233H22.9071" stroke="#ABB8FF" stroke-linecap="round" stroke-dasharray="2 2"/>
<path d="M64.863 1.11609L64.863 20.4804" stroke="#EA4040" stroke-linecap="round"/>
<path d="M74.5453 10.7984L55.181 10.7984" stroke="#EA4040" stroke-linecap="round"/>
<ellipse cx="46.379" cy="23.023" rx="10.9535" ry="4.69438" fill="#ABB8FF" fill-opacity="0.5" stroke="#ABB8FF"/>
<path d="M35.4254 32.4119C35.4254 32.4119 35.4254 36.0784 35.4254 38.6711C35.4254 41.2637 40.3295 43.3655 46.3789 43.3655C52.4284 43.3655 57.3325 41.2637 57.3325 38.6711C57.3325 37.377 57.3325 32.4119 57.3325 32.4119" stroke="#ABB8FF" stroke-linecap="square"/>
<path d="M35.4254 23.0232C35.4254 23.0232 35.4254 28.2546 35.4254 30.8472C35.4254 33.4398 40.3295 35.5416 46.3789 35.5416C52.4284 35.5416 57.3325 33.4398 57.3325 30.8472C57.3325 29.5531 57.3325 23.0232 57.3325 23.0232" stroke="#ABB8FF"/>
</svg>
